icons/svg/jira.svg

﻿<?xml version="1.0" encoding="utf-8"?>
<!DOCTYPE svg PUBLIC "-//W3C//DTD SVG 1.1//EN" "http://www.w3.org/Graphics/SVG/1.1/DTD/svg11.dtd">
<svg xmlns="http://www.w3.org/2000/svg" xmlns:xlink="http://www.w3.org/1999/xlink" version="1.1" baseProfile="full" width="24" height="24" viewBox="0 0 24.00 24.00" enable-background="new 0 0 24.00 24.00" xml:space="preserve">
	<path fill="#000000" fill-opacity="1" stroke-width="0.2" stroke-linejoin="round" d="M 12,1.99999C 12.872,1.99999 13.579,2.70691 13.579,3.57894C 13.579,4.45097 12.872,5.15789 12,5.15789C 11.128,5.15789 10.4211,4.45097 10.4211,3.57894C 10.4211,2.70691 11.128,1.99999 12,1.99999 Z M 7.78948,3.05264C 8.66151,3.05264 9.36842,3.75955 9.36842,4.63158C 9.36842,5.50361 8.66151,6.21053 7.78948,6.21053C 6.91745,6.21053 6.21053,5.50361 6.21053,4.63158C 6.21053,3.75955 6.91744,3.05264 7.78948,3.05264 Z M 16.2105,3.05263C 17.0826,3.05263 17.7895,3.75955 17.7895,4.63158C 17.7895,5.50361 17.0826,6.21053 16.2105,6.21053C 15.3385,6.21053 14.6316,5.50361 14.6316,4.63158C 14.6316,3.75955 15.3385,3.05263 16.2105,3.05263 Z M 11.8026,10.9474C 9.69738,8.84211 10.2237,7.78948 10.2237,7.78948L 13.9079,7.78947C 13.9079,9.36842 11.8026,10.9474 11.8026,10.9474 Z M 13.9079,21.4737C 13.9079,21.4737 13.9079,19.3684 9.69738,15.1579C 5.48686,10.9474 4.96054,9.89473 4.43422,6.73684C 4.43422,6.73685 4.82896,6.21053 5.35527,6.73685C 5.88159,7.26317 7.0658,7.65789 8.11843,7.6579C 8.11843,7.6579 9.17107,10.9474 12.0658,13.0526C 12.0658,13.0526 15.8816,9.10527 15.8816,7.52632C 15.8816,7.52632 17.0658,7.78947 18.5132,6.73685C 18.5132,6.73685 19.5005,6.2146 19.5658,6.73685C 19.6974,7.78947 18.6447,11.4737 14.3026,15.1579C 14.3026,15.1579 17.0658,18.3158 16.8026,21.4737L 13.9079,21.4737 Z M 9.17107,16.2105L 11.4079,18.7105C 10.3553,19.7632 10.2237,22 10.2237,22L 7.06581,22C 7.59212,17.7895 9.17107,16.2105 9.17107,16.2105 Z "/>
</svg>

<svg xmlns="http://www.w3.org/2000/svg" version="1.1" baseProfile="full" width="24" height="24" viewBox="0 0 24.00 24.00" xml:space="preserve"><path fill="#000" fill-opacity="1" stroke-width=".2" stroke-linejoin="round" d="M12 2c.872 0 1.58.707 1.58 1.58 0 .87-.708 1.578-1.58 1.578-.872 0-1.58-.707-1.58-1.58C10.42 2.71 11.13 2 12 2zM7.79 3.053c.872 0 1.578.707 1.578 1.58 0 .87-.706 1.578-1.58 1.578-.87 0-1.577-.706-1.577-1.578 0-.872.707-1.58 1.58-1.58zm8.42 0c.873 0 1.58.707 1.58 1.58 0 .87-.707 1.578-1.58 1.578-.872 0-1.578-.706-1.578-1.578 0-.872.707-1.58 1.579-1.58zm-4.407 7.894c-2.106-2.105-1.58-3.158-1.58-3.158h3.685c0 1.578-2.105 3.157-2.105 3.157zm2.105 10.527s0-2.106-4.21-6.316-4.737-5.263-5.264-8.42c0 0 .395-.527.92 0 .528.525 1.712.92 2.764.92 0 0 1.053 3.29 3.948 5.395 0 0 3.816-3.948 3.816-5.527 0 0 1.184.263 2.63-.79 0 0 .988-.52 1.054 0 .13 1.053-.92 4.738-5.263 8.422 0 0 2.763 3.158 2.5 6.316h-2.895zM9.17 16.21l2.238 2.5C10.355 19.764 10.224 22 10.224 22H7.066c.526-4.21 2.105-5.79 2.105-5.79z"/></svg>
